!!!OTL: MEIN HERZLEIN THUT MIR GAR ZU WEH
!!!ARE: Europa, Mitteleuropa, Deutschland
!!!SCT: Z0293
!!!YEM: Copyright 1995, estate of Helmut Schaffrath.
**kern
*ICvox
*Ivox
*M2/4
*k[c-e-a-]
*c:
{8c
=1
4e-
4f
=2
4.g}
{16c
16d
=3
8e-
8c
8d
8B
=4
4c
8r}
{8c
=5
4e-
4f
=6
4.g}
{16c
16d
=7
8e-
8c
8d
8B
=8
4c
8r}
{8e-
=9
8f
8f
8f
16f
16g
=10
4f
8r}
{16e-
16f
=11
8g
8g
8f
8e-
=12
4d
8r}
{8g
=13
8f
8e-
8d
8c
=14
8.c
16B
8c}
{8d
=15
8e-
8f
8.g
16B
=16
4c
8r}
{8e-
=17
8f
8f
8f
16f
16g
=18
4f
8r}
{16e-
16f
=19
8g
8g
8f
8e-
=20
4d
8r}
{8g
=21
8f
8e-
8d
8c
=22
8.c
16B
8c}
{8d
=23
8e-
8f
8.g
16B
=24
4c
8r}
==
!!!AGN: Lyrisches Lied, Romanze, Abschieds - Lied
!!!ONB: ESAC (Essen Associative Code) Database: ZUCCAL
!!!AMT: simple duple
!!!AIN: vox
!!!EED: Helmut Schaffrath
!!!EEV: 1.0
*-
